svg/fluentui-system-icons/ic_fluent_table_insert_row_28_regular.svg

<svg width="28" height="28" viewBox="0 0 28 28" fill="none" xmlns="http://www.w3.org/2000/svg">
<path d="M3.75 23.5C3.33579 23.5 3 23.8358 3 24.25C3 24.6642 3.33579 25 3.75 25H24.25C24.6642 25 25 24.6642 25 24.25C25 23.8358 24.6642 23.5 24.25 23.5H3.75ZM3.75 3C3.33579 3 3 3.33579 3 3.75C3 4.16421 3.33579 4.5 3.75 4.5L24.25 4.5C24.6642 4.5 25 4.16421 25 3.75C25 3.33579 24.6642 3 24.25 3H3.75ZM3 16.25C3 17.7688 4.23122 19 5.75 19H22.25C23.7688 19 25 17.7688 25 16.25V11.75C25 10.2312 23.7688 9 22.25 9L5.75 9C4.23122 9 3 10.2312 3 11.75V16.25ZM5.75 17.5C5.05964 17.5 4.5 16.9404 4.5 16.25L4.5 11.75C4.5 11.0596 5.05964 10.5 5.75 10.5L10 10.5L10 17.5H5.75ZM11.5 17.5V10.5H16.5V17.5L11.5 17.5ZM18 17.5V10.5L22.25 10.5C22.9404 10.5 23.5 11.0596 23.5 11.75V16.25C23.5 16.9404 22.9404 17.5 22.25 17.5H18Z" fill="#212121"/>
</svg>

<svg xmlns="http://www.w3.org/2000/svg" width="28" height="28"><path d="M3.75 23.5a.75.75 0 0 0 0 1.5h20.5a.75.75 0 0 0 0-1.5H3.75Zm0-20.5a.75.75 0 0 0 0 1.5h20.5a.75.75 0 0 0 0-1.5H3.75ZM3 16.25A2.75 2.75 0 0 0 5.75 19h16.5A2.75 2.75 0 0 0 25 16.25v-4.5A2.75 2.75 0 0 0 22.25 9H5.75A2.75 2.75 0 0 0 3 11.75v4.5Zm2.75 1.25c-.69 0-1.25-.56-1.25-1.25v-4.5c0-.69.56-1.25 1.25-1.25H10v7H5.75Zm5.75 0v-7h5v7h-5Zm6.5 0v-7h4.25c.69 0 1.25.56 1.25 1.25v4.5c0 .69-.56 1.25-1.25 1.25H18Z"/></svg>
